X: 97
T:The Swallowtail ******************
M:4/4
L:1/8
Q:150
R:reel
K:G
gf|eA (3cBA eA (3cBA|cdef gedB|G2BG dGBG|Bdef g2fg|\
eA (3cBA eA (3cBA|cdef g2fg|afge dBGB|AcBG A2:|
Bd|eaag a2ag |edef gedB|G2BG dGBG|Bdef g2fg|\
eaag abag|edef g2fg|afge dBGB|AcBG A2:|
